svgs/sim_toolkit.svg

<svg width="192" height="192" viewBox="0 0 192 192" fill="none" xmlns="http://www.w3.org/2000/svg"><path fill-rule="evenodd" clip-rule="evenodd" d="M16 58c0-6.627 5.373-12 12-12h136c6.627 0 12 5.373 12 12v57c0 17.121-13.879 31-31 31H28c-6.627 0-12-5.373-12-12V58Zm54 0H28v14h33.515L70 63.515V58Zm12 0v8a6 6 0 0 1-1.757 4.243L70 80.485v30.03l10.243 10.242A6.002 6.002 0 0 1 82 125v9h28v-9c0-1.591.632-3.117 1.757-4.243L122 110.515V78a6 6 0 0 1 6-6h36V58H82Zm82 26h-30v23h30V84Zm-.422 35h-33.093L122 127.485V134h23c9.121 0 16.741-6.427 18.578-15ZM70 134v-6.515L61.515 119H28v15h42Zm-42-27h30V84H28v23Z" fill="#000"/></svg>

<?xml version="1.0" encoding="UTF-8" standalone="no"?><svg xmlns:android="http://schemas.android.com/apk/res/android" height="192" width="192" xmlns="http://www.w3.org/2000/svg">
    <path d="M 16 58 C 16 51.373 21.373 46 28 46 L 164 46 C 170.627 46 176 51.373 176 58 L 176 115 C 176 132.121 162.121 146 145 146 L 28 146 C 21.373 146 16 140.627 16 134 L 16 58 Z M 70 58 L 28 58 L 28 72 L 61.515 72 L 70 63.515 L 70 58 Z M 82 58 L 82 66 C 82 67.591 81.368 69.117 80.243 70.243 L 70 80.485 L 70 110.515 L 80.243 120.757 C 81.368 121.883 82 123.409 82 125 L 82 134 L 110 134 L 110 125 C 110 123.409 110.632 121.883 111.757 120.757 L 122 110.515 L 122 78 C 122 74.686 124.686 72 128 72 L 164 72 L 164 58 L 82 58 Z M 164 84 L 134 84 L 134 107 L 164 107 L 164 84 Z M 163.578 119 L 130.485 119 L 122 127.485 L 122 134 L 145 134 C 154.121 134 161.741 127.573 163.578 119 Z M 70 134 L 70 127.485 L 61.515 119 L 28 119 L 28 134 L 70 134 Z M 28 107 L 58 107 L 58 84 L 28 84 L 28 107 Z" fill="#000000"/>
</svg>
